X:1
T:Für Elise
T:Für Elise
%%score 1 2
L:1/8
Q:1/8=130
M:3/8
K:C
V:1 treble nm="Piano"
V:2 bass nm="Klavier"
V:1
 e/^d/ | e/^d/e/B/=d/c/ | A z/ C/E/A/ | B z/ E/^G/B/ | c z/ E/e/^d/ | e/^d/e/B/=d/c/ | %6
 A z/ C/E/A/ | B z/ D/c/B/ |1 A2 z :|2 A z/ B/c/d/ |: e>Gf/e/ | d>Fe/d/ | c>Ed/c/ | B z/ E/e/ z/ | %14
 z/ e/e'/ z/ z/ ^d/ | e z/ ^d/e/d/ | e/^d/e/B/=d/c/ | A z/ C/E/A/ | B z/ E/^G/B/ | c z/ E/e/^d/ | %20
 e/^d/e/B/=d/c/ | A z/ C/E/A/ | B z/ D/c/B/ |1 A z/ B/c/d/ :|2 A z/ [Ec]/[Fc]/[EGc]/ || %25
{FA} c2 f/>e/ | (ed)_b/>a/ | (a/g/f/e/d/c/) | _BA{B}A/4G/4A/4B/4 | c2 d/^d/ | e>ef/A/ | c2 d/>B/ | %32
 c/4g/4G/4g/4A/4g/4B/4g/4c/4g/4d/4g/4 | e/4g/4c'/4b/4a/4g/4f/4e/4d/4g/4f/4d/4 | %34
 c/4g/4G/4g/4A/4g/4B/4g/4c/4g/4d/4g/4 | e/4g/4c'/4b/4a/4g/4f/4e/4d/4g/4f/4d/4 | %36
 e/4f/4e/4^d/4e/4B/4e/4d/4e/4B/4e/4d/4 | e>Be/^d/ | e>(Be/)(^d/ | e/)(^d/e/)(d/e/)(d/ | %40
 e/)^d/e/B/=d/c/ | A z/ C/E/A/ | B z/ E/^G/B/ | c z/ E/e/^d/ | e/^d/e/B/=d/c/ | A z/ C/E/A/ | %46
 B z/ E/c/B/ | A z/ B/c/d/ | e>Gf/e/ | d>Fe/d/ | c>Ed/c/ | B z/ E/e/ z/ | z/ (e/e'/) z/ z/ (^d/ | %53
 e/) z/ z/ ^d/e/d/ | e/^d/e/B/=d/c/ | A z/ C/E/A/ | B z/ E/^G/B/ | c z/ E/e/^d/ | e/^d/e/B/=d/c/ | %59
 A z/ C/E/A/ | B z/ E/c/B/ | A z2 | [EG_B^c]3 | [FAd]2 [^ce]/[df]/ | [^Gdf]2 [Gdf] | [Ace]3 | %66
 [Fd]2 [Ec]/[DB]/ | [C^FA]2 [CA] | [CA][Ec][DB] | !fermata![CA]3 | [EG_B^c]3 | [FAd]2 [^ce]/[df]/ | %72
 [df]2 [df] | [df]3 | [G_e]2 [Fd]/[_Ec]/ | [DF_B]2 [DFA] | [DF^G]2 [DFG] | [CEA]2 z | [EB] z2 | %79
 (3A,/C/E/(3A/c/e/(3d/c/B/ | (3A/c/e/(3a/c'/e'/(3d'/c'/b/ | %81
!8va(! (3a/c'/e'/(3a'/c''/e''/(3d''/c''/b'/ | (3_b'/a'/^g'/(3=g'/!8va)!^f'/=f'/(3e'/^d'/=d'/ | %83
 (3^c'/=c'/b/(3_b/a/^g/(3=g/^f/=f/ | e/^d/e/B/=d/c/ | A z/ C/E/A/ | B z/ E/^G/B/ | c z/ E/e/^d/ | %88
 e/^d/e/B/=d/c/ | A z/ C/E/A/ | B z/ E/c/B/ | A z/ B/c/d/ | e>Gf/e/ | d>Fe/d/ | c>Ed/c/ | %95
 B z/ (E/e/) z/ | z/ (e/e'/) z/ z/ (^d/ | e/) z/ z/ ^d/e/d/ | e/^d/e/B/=d/c/ | A z/ C/E/A/ | %100
 B z/ E/^G/B/ | c z/ E/e/^d/ | e/^d/e/B/=d/c/ | A z/ C/E/A/ | B z/ E/c/B/ | A2- A |] %106
V:2
 z | z3 |!ped! A,,/E,/A,/ z/ z!ped-up! |!ped! E,,/E,/^G,/ z/ z!ped-up! | %4
!ped! A,,/E,/A,/ z/ z!ped-up! | z3 |!ped! A,,/E,/A,/ z/ z!ped-up! | %7
!ped! E,,/E,/^G,/ z/ z!ped-up! |1!ped! A,,/E,/A,/ z/ z!ped-up! :|2 A,,/E,/A,/ z/ z |: %10
!ped! C,/G,/C/ z/ z!ped-up! |!ped! G,,/G,/B,/ z/ z!ped-up! |!ped! A,,/E,/A,/ z/ z!ped-up! | %13
 E,,/E,/E/ z/ z/[K:treble] (E/ | e/) z/ z/ ^d/e/ z/ | z/ ^d/e/ z/ z | z3 | %17
[K:bass]!ped! A,,/E,/A,/ z/ z!ped-up! |!ped! E,,/E,/^G,/ z/ z!ped-up! | %19
!ped! A,,/E,/A,/ z/ z!ped-up! | z3 |!ped! A,,/E,/A,/ z/ z!ped-up! | %22
!ped! E,,/E,/^G,/ z/ z!ped-up! |1 A,,/E,/A,/ z/ z :|2 A,,/E,/A,/[_B,C]/[A,C]/[G,B,C]/ || %25
 F,/A,/C/A,/C/A,/ | F,/_B,/D/B,/D/B,/ | F,/E/[F,G,_B,]/E/[F,G,B,]/E/ | F,/A,/C/A,/C/A,/ | %29
 F,/A,/C/A,/C/A,/ | E,/A,/C/A,/[D,D]/F,/ | E,/E/E,/F/G,/F/ |[K:treble] [CE] z/ [FG]/[EG]/[DFG]/ | %33
 [CEG][K:bass][F,A,][G,B,] |[K:treble] C z/ [FG]/[EG]/[DFG]/ | [CE][K:bass][F,A,][G,B,] | %36
 [^G,B,] z2 | z3 | z3 | z3 | z3 |!ped! A,,/E,/A,/ z/ z!ped-up! |!ped! E,,/E,/^G,/ z/ z!ped-up! | %43
!ped! A,,/E,/A,/ z/ z!ped-up! | z3 |!ped! A,,/E,/A,/ z/ z!ped-up! |!ped! E,,/E,/^G,/ z/ z!ped-up! | %47
!ped! A,,/E,/A,/ z/ z!ped-up! |!ped! C,/G,/C/ z/ z!ped-up! |!ped! G,,/G,/B,/ z/ z!ped-up! | %50
!ped! A,,/E,/A,/ z/ z!ped-up! |!ped! E,,/E,/E/ z/ z/[K:treble] (E/!ped-up! | e/) z/ z/ (^d/e/) z/ | %53
 z/ (^d/e/) z/ z | z3 |[K:bass]!ped! A,,/E,/A,/ z/ z!ped-up! |!ped! E,,/E,/^G,/ z/ z!ped-up! | %57
!ped! A,,/E,/A,/ z/ z!ped-up! | z3 |!ped! A,,/E,/A,/ z/ z!ped-up! |!ped! E,,/E,/^G,/ z/ z!ped-up! | %61
 A,,/A,,/A,,/A,,/A,,/A,,/ | A,,/A,,/A,,/A,,/A,,/A,,/ | A,,/A,,/A,,/A,,/A,,/A,,/ | %64
 A,,/A,,/A,,/A,,/A,,/A,,/ | A,,/A,,/A,,/A,,/A,,/A,,/ | %66
 [D,,A,,]/[D,,A,,]/[D,,A,,]/[D,,A,,]/[D,,A,,]/[D,,A,,]/ | %67
 [^D,,A,,]/[D,,A,,]/[D,,A,,]/[D,,A,,]/[D,,A,,]/[D,,A,,]/ | %68
 [E,,A,,]/[E,,A,,]/[E,,A,,]/[E,,A,,]/[E,,^G,,]/[E,,G,,]/ | %69
 !fermata![A,,,A,,]/A,,/A,,/A,,/A,,/A,,/ | A,,/A,,/A,,/A,,/A,,/A,,/ | A,,/A,,/A,,/A,,/A,,/A,,/ | %72
 A,,/A,,/A,,/A,,/A,,/A,,/ | _B,,/B,,/B,,/B,,/B,,/B,,/ | _B,,/B,,/B,,/B,,/B,,/B,,/ | %75
 _B,,/B,,/B,,/B,,/B,,/B,,/ | B,,/B,,/B,,/B,,/B,,/B,,/ | C,2 z | [E,^G,] z2 | %79
!ped! A,,, z [A,CE]!ped-up! | [A,CE] z [A,CE] | [A,CE] z [A,CE] | [A,CE] z z | z3 | z3 | %85
!ped! A,,/E,/A,/ z/ z!ped-up! |!ped! E,,/E,/^G,/ z/ z!ped-up! |!ped! A,,/E,/A,/ z/ z!ped-up! | z3 | %89
!ped! A,,/E,/A,/ z/ z!ped-up! |!ped! E,,/E,/^G,/ z/ z!ped-up! |!ped! A,,/E,/A,/ z/ z!ped-up! | %92
!ped! C,/G,/C/ z/ z!ped-up! |!ped! G,,/G,/B,/ z/ z!ped-up! |!ped! A,,/E,/A,/ z/ z!ped-up! | %95
!ped! E,,/E,/E/ z/ z/[K:treble] (E/!ped-up! | e/) z/ z/ (^d/e/) z/ | z/ (^d/e/) z/ z | z3 | %99
[K:bass]!ped! A,,/E,/A,/ z/ z!ped-up! |!ped! E,,/E,/^G,/ z/ z!ped-up! | %101
!ped! A,,/E,/A,/ z/ z!ped-up! | z3 |!ped! A,,/E,/A,/ z/ z!ped-up! |!ped! E,,/E,/^G,/ z/ z!ped-up! | %105
!ped! A,,2- A,,!ped-up! |] %106

